X: 2144
T: Polska efter Byss-Kalle (nr 36)
S: efter Byss-Kalle
B: 57 låtar efter Byss-Kalle nr 36
B: Jämför [[http://www.smus.se/earkiv/fmk/browselarge.php?lang=sw&katalogid=Hs+12&bildnr=00002|SMUS - katalog Hs12 bild 2]] efter [[Personer/P Söderblom]] från [[Platser/Hälsingland]] - en avskrift av källan till uppteckningen i Byss-Kalle-häftet. Den är identisk så när som på bågarna och att det högsta C:et aldrig är punkterat.
B: Jämför [[http://www.smus.se/earkiv/fmk/browselarge.php?lang=sw&katalogid=Up+1&bildnr=00007|SMUS - katalog Up1 bild 7]] efter [[Personer/Jonas Skoglund]]
B: Jämför [[http://www.smus.se/earkiv/fmk/browselarge.php?lang=sw&katalogid=M+36&bildnr=00009|SMUS - katalog M36 bild 9]] som är hämtad ur [[Notböcker/220 Svenska Folkdanser]] (Ahlström) och uppges komma från [[Platser/Västmanland]]
B: Jämför [[Notböcker/John Johanssons noter]] [[http://www.sormlandsmusikarkiv.se/noter/johansson_john/john_johansson.html|samling 2]] (sida 69 nr 95, och sida 70 nr 99)
B: Jämför [[http://www.smus.se/earkiv/fmk/browselarge.php?lang=sw&katalogid=Vs+2&bildnr=00055|SMUS - katalog Vs2 bild 55]] polonäs trio ur [[Notböcker/J E Schedin och A G Ahlins notbok]]. Kanske inte är samma låt, men det finns vissa likheter.
B: Jämför [[http://www.smus.se/earkiv/fmk/browselarge.php?lang=sw&katalogid=Hs+12&bildnr=00002|SMUS - katalog Hs12 bild 2]] efter [[Personer/Carl Sved]]
B: Jämför [[http://www.smus.se/earkiv/fmk/browselarge.php?lang=sw&katalogid=M+31&bildnr=00009|SMUS - katalog M31 bild 9]] nr 23
B: Jämför [[http://www.smus.se/earkiv/fmk/browselarge.php?lang=sw&katalogid=MMD+65&bildnr=00010|SMUS - katalog MMD65 bild 10]] nr 8 (i både dur och moll)
B: Jämför [[http://www.smus.se/earkiv/fmk/browselarge.php?lang=sw&katalogid=M+30a&bildnr=00001|SMUS - katalog M30a bild 1]] nr 2
B: Jämför [[http://www.smus.se/earkiv/fmk/browselarge.php?lang=sw&katalogid=MMD+16&bildnr=00007|SMUS - katalog MMD16 bild 7]] nr 11
B: Jämför [[http://www.smus.se/earkiv/fmk/browselarge.php?lang=sw&katalogid=M+22b&bildnr=00042|SMUS - katalog M22b bild 42]] nr 30
B: Jämför [[Notböcker/75 polskor från Uppland och Södermanland]], nr 42 (en åttondelspolska med litet liknande motiv)
O: Uppland
R: Slängpolska
N: Ur Byss-Kalle-nothäftet: Polskan ingår i Svenska Låtar, Hälsingland nr. 178 och har hämtats ur en polsksamling från 1840-talet. Samlingen tillhörde organisten och spelmannen P. Söderblom i Delsbo. Jfr. Leffler. "Om nyckelharpspelet på Skansen", sid 87. Se även Ahlström, 220 Svenska Folkdanser, nr 40, där den uppges ha kommit från Västmanland.
Z: Nils L
M: 3/4
L: 1/16
K: C
e2(eg) f2(fg) e2(eg) | (fe)fa g4>f4 | e4 (gf)ef d4 | (ed)cd e2e2 c4 |
e2(eg) f2(fg) e2(eg) | (fe)fa g4>g4 | c'2>e2 (fe)fg a2f2 | (ed)cB d4 c4 ::
d2>c2 B2c2 d2e2 | e2f2 (fd)Bd c4 | e2>c2 c2e2 e2g2 | g2^fg (ag)=fe d4 |
d2>c2 B2c2 d2e2 | e2f2 (fd)Bd c4 | e2>c2 c2e2 e2g2 | g2^fg (ag)=fe d4 |
e2(eg) f2(fg) e2(eg) | (fe)fa g4>g4 | c'2e2 fefg a2f2 | (ed)cB d4 c4 :|
(:musicend:)

(:music:)
